X:1
T:Titel (500)
T:So ben, mi, c'ha bon tempo
T:Orazio Vecchi (1550-1605)
T: 
T:530
C:Orazio Vecchi
%%score 1 2 3 4
L:1/8
Q:1/2=100
M:2/2
K:G
V:1 treble nm="S"
V:2 treble nm="A"
V:3 treble-8 nm="T"
V:4 bass nm="B"
V:1
 E2 | E2 F2 G2 A2 | B4 B2 E2 | E2 F2 G2 A2 | B4 B2 =d2 | d4 e4 | f6 ed | ^c2 B2 c2 c2 | B4 :: %9
w: 1.~So|ben, mi, c'ha bon|tem- po, so|ben, mi, c'ha bon|tem- po. Fa|la la|la la la|la la la la|la|
w: 2.~So|ben ch'è fa- vo-|ri- to, so|ben chè fa- vo-|ri- to. *|||||
w: 3.~O,|s'io po- tes- si|di- re, O,|s'io po- tes- si|di- re *|||||
w: 4.~La|ti da- rà mar-|tel- lo, la|ta da- rà mar-|tel- lo *|||||
w: 5.~Sa-|lu- tie ba- cia-|ma- ni, sa-|lu- tie ba- cia-|ma- ni *|||||
 z2 e2 | e2 e2 ^d2 d2 | e4 z2 d2 | d2 d2 ^c2 c2 | d4 A2 B2 | =c4 B4 | A4 G2 G2 | F2 E2 F2 F2 | %17
w: 1.~Il|so, ma bas- ta|mo', il|so, ma bas- ta|mo'. Fa la|la la|la la la|la la la la|
w: 2.~Ahi-|mè! no'l pos- so|dir, ahi-|mè! no'l pos- so|dir. * *||||
w: 3.~Chi|va, chi sta, chi|vien, chi|va, chi sta, chi|vien! * *||||
w: 4.~Per|far- ti di- spe-|rar, per|far- ti di- spe-|rar. * *||||
w: 5.~Son|tut- tiin- dar- no,a|fè, son|tut- ti~in- dar- no,a|fè. * *||||
 E4 :| %18
w: la.|
w: |
w: |
w: |
w: |
V:2
 B,2 | B,2 B,2 E2 E2 | ^D4 D2 B,2 | B,2 B,2 E2 E2 | ^D4 D2 F2 | F4 A4 | A6 G2 | A2 D2 F2 F2 | F4 :: %9
w: |||||||||
 z2 G2 | E2 E2 A2 A2 | ^G4 z2 =G2 | G2 F2 A2 A2 | B2 B2 F2 G2 | A2 GA D2 D2- | D2 D2 B,3 C | %16
w: ||||* Fa la la|la la la la *|* la la la|
 D2 E2 E2 ^D2 | E4 :| %18
w: la la la la|la.|
V:3
 G2 | G2 F2 E2 E2 | F4 F2 G2 | G2 F2 E2 E2 | F4 F2 B2 | d4 ^c4 | d6 B2 | f2 B2 B2 ^A2 | B4 :: %9
w: 1.~So|ben, mi, c'ha bon|tem- po, so|ben, mi, c'ha bon|tem- po. Fa|la la|la la|la la la la|la|
w: 2.~So|ben ch'è fa- vo-|ri- to, so|ben chè fa- vo-|ri- to. *|||||
w: 3.~O,|s'io po- tes- si|di- re, O,|s'io po- tes- si|di- re *|||||
w: 4.~La|ti da- rà mar-|tel- lo, la|ta da- rà mar-|tel- lo *|||||
w: 5.~Sa-|lu- tie ba- cia-|ma- ni, sa-|lu- tie ba- cia-|ma- ni *|||||
 z2 B2 | =c2 c2 A2 A2 | B4 z2 B2 | d2 d2 e2 e2 | g4 z4 | e2 f2 g4 | f4 e4 | d2 G2 B2 B2 | B4 :| %18
w: 1.~Il|so, ma bas- ta|mo', il|so, ma bas- ta|mo'.|Fa la la|la la|la la la la|la.|
w: 2.~Ahi-|mè! no'l pos- so|dir, ahi-|mè! no'l pos- so|dir.|||||
w: 3.~Chi|va, chi sta, chi|vien, chi|va, chi sta, chi|vien!|||||
w: 4.~Per|far- ti di- spe-|rar, per|far- ti dis- pe-|rar!|||||
w: 5.~Son|tut- tiin- dar- no,a|fè, son|tut- tiin- dar- no,a|fè.|||||
V:4
 E,2 | E,2 D,2 E,2 C,2 | B,,4 B,,2 E,2 | E,2 D,2 E,2 C,2 | B,,4 B,,2 B,2 | B,4 A,4 | D,6 E,2 | %7
w: |||||||
 F,2 G,2 F,2 F,2 | B,,4 :: z2 E,2 | A,2 A,2 F,2 F,2 | E,4 z2 G,2 | G,2 B,2 A,2 A,2 | %13
w: ||||||
 G,2 G,,2 D,2 C,B,, | A,,2 A,,2 G,,2 G,2 | D,4 E,2 D,C, | B,,2 C,2 B,,2 B,,2 | E,4 :| %18
w: * Fa la la la|la la la la|la la la la|la la la la|la.|

